X:1
T:Title
%%score { ( 1 3 5 ) | ( 2 4 ) }
L:1/8
M:4/4
K:F
V:1 treble nm="Grand Piano"
V:3 treble 
V:5 treble 
V:2 bass 
V:4 bass 
V:1
 z4 z2[Q:1/4=104] C2 | C2 F>A c2 A>F | C2 F>A c2 A>F | C2 C2 C3 C |[M:7/8] F-F-F- F3 z |[M:1/8] D | %6
[M:4/4] D2 G>B d2 B>A | G2 G>B d2 B>A | [B,EG]2 [B,DF]2 [B,CE]3 [B,EG] |[M:3/4] [Ec]6 | %10
[M:1/4] (3cde |[M:4/4] z2 e2 z4 | c6 c2 | [Be]2 [Ad]2 G2 z d |[M:3/4] c6 |[M:1/4] C2 | %16
[M:4/4] F3 E F2 G2 | A2 B2 c2 [Fd]2 | [Fc]3 A C2 C2 |[M:3/4] [A,F]6 |] %20
V:2
 z4 z2 C,2 | C,2 F,>A, C2 A,>F, | C,2 F,>A, C2 A,>F, | [C,E,]2 [D,F,]2 [E,G,]3 [E,B,] | %4
[M:7/8] [F,A,C]-[F,A,C]-[F,A,C]- [F,A,C]3 z |[M:1/8] D, |[M:4/4] D,2 G,>B, D2 B,>A, | %7
 G,2 G,>B, D2 B,>A, | C,2 D,2 E,3 C, |[M:3/4] [C,G,]6 |[M:1/4] z2 | %11
[M:4/4] [D,F,]2 [E,G,]>[E,G,] [F,A,F]2 [D,D]2 | G,A,B,C, z C .[C,B,]2 | %13
 [C,G,]2 [D,F,]2 [E,G,]2 [C,B,]2 |[M:3/4] [F,A,F]6 |[M:1/4] [G,B,]2 | %16
[M:4/4] [F,A,C]3 [G,B,C] [F,A,C]2 [E,G,C]2 | [F,C]2 [F,G,C]2 [F,A,F]2 [B,,B,]2 | %18
 [C,A,]3 [C,F,C] [C,E,]2 [C,E,B,]2 |[M:3/4] [F,,F,]6 |] %20
V:3
 x8 | x8 | x8 | x8 |[M:7/8] x7 |[M:1/8] x |[M:4/4] x8 | x8 | x8 |[M:3/4] x6 |[M:1/4] x2 | %11
[M:4/4] [Af]2 G>G d2 [FA]2 | EFG[CA] [DB]AG[A,F] | z4 c4 |[M:3/4] x6 |[M:1/4] x2 |[M:4/4] x8 | x8 | %18
 x8 |[M:3/4] x6 |] %20
V:4
 x8 | x8 | x8 | x8 |[M:7/8] x7 |[M:1/8] x |[M:4/4] x8 | x8 | x8 |[M:3/4] x6 |[M:1/4] x2 | %11
[M:4/4] x8 | C,4 C,2 z2 | x8 |[M:3/4] x6 |[M:1/4] x2 |[M:4/4] x8 | x8 | x8 |[M:3/4] x6 |] %20
V:5
 x8 | x8 | x8 | x8 |[M:7/8] x7 |[M:1/8] x |[M:4/4] x8 | x8 | x8 |[M:3/4] x6 |[M:1/4] x2 | %11
[M:4/4] x8 | x8 | z4 z2 E2 |[M:3/4] x6 |[M:1/4] x2 |[M:4/4] x8 | x8 | x8 |[M:3/4] x6 |] %20

